src/img/staking/active/ic_titan.svg

<svg xmlns="http://www.w3.org/2000/svg" width="28" height="28" viewBox="0 0 28 28" fill="none">
  <path opacity="0.5"
    d="M19.3105 12.3408V15.6582L14 17.3955L8.68945 15.6582V12.3408L14 10.6035L19.3105 12.3408Z"
    stroke="#7885FF" stroke-width="1.4" />
  <path
    d="M13.9998 7.0166L7.98926 9.0166V10.7192L13.9998 8.7248L20.0103 10.6999V9.0166L13.9998 7.0166Z"
    fill="#7885FF" />
  <path
    d="M13.9998 20.9824L7.98926 18.9824V17.2798L13.9998 19.2742L20.0103 17.2992V18.9824L13.9998 20.9824Z"
    fill="#7885FF" />
  <path
    d="M17.5136 13.5097L14 12.6221L10.4863 13.5097V14.3959L14 15.3774L17.5136 14.3959V13.5097Z"
    fill="#7885FF" />
</svg>

<svg xmlns="http://www.w3.org/2000/svg" width="28" height="28" fill="none" viewBox="0 0 28 28">
  <g clip-path="url(#a)">
    <path stroke="#7885FF" stroke-width="1.4" d="M19.31 12.34v3.318L14 17.395l-5.31-1.737v-3.317L14 10.604l5.31 1.737Z" opacity=".5"/>
    <path fill="#7885FF" d="m14 7.017-6.01 2v1.702L14 8.725l6.01 1.975V9.017l-6.01-2Z"/>
    <path fill="#7885FF" d="m14 20.982-6.01-2V17.28L14 19.274l6.01-1.975v1.683l-6.01 2Z"/>
    <path fill="#7885FF" d="M17.514 13.51 14 12.622l-3.514.888v.886l3.514.981 3.514-.981v-.886Z"/>
  </g>
  <defs>
    <clipPath id="a">
      <path fill="#fff" d="M0 0h28v28H0z"/>
    </clipPath>
  </defs>
</svg>
